build/img/notfinish.svg

<svg width="20" height="20" viewBox="0 0 20 20" fill="none" xmlns="http://www.w3.org/2000/svg">
<path fill-rule="evenodd" clip-rule="evenodd" d="M5.66979 -0.000976562H14.3398C17.7298 -0.000976562 19.9998 2.37902 19.9998 5.91902V14.09C19.9998 17.62 17.7298 19.999 14.3398 19.999H5.66979C2.27979 19.999 -0.000213623 17.62 -0.000213623 14.09V5.91902C-0.000213623 2.37902 2.27979 -0.000976562 5.66979 -0.000976562ZM13.0098 12.999C13.3498 12.66 13.3498 12.11 13.0098 11.77L11.2298 9.99002L13.0098 8.20902C13.3498 7.87002 13.3498 7.31002 13.0098 6.97002C12.6698 6.62902 12.1198 6.62902 11.7698 6.97002L9.99979 8.74902L8.21979 6.97002C7.86979 6.62902 7.31979 6.62902 6.97979 6.97002C6.63979 7.31002 6.63979 7.87002 6.97979 8.20902L8.75979 9.99002L6.97979 11.76C6.63979 12.11 6.63979 12.66 6.97979 12.999C7.14979 13.169 7.37979 13.26 7.59979 13.26C7.82979 13.26 8.04979 13.169 8.21979 12.999L9.99979 11.23L11.7798 12.999C11.9498 13.18 12.1698 13.26 12.3898 13.26C12.6198 13.26 12.8398 13.169 13.0098 12.999Z" fill="#EB5757"/>
</svg>

<svg width="20" height="20" fill="none" xmlns="http://www.w3.org/2000/svg"><path fill-rule="evenodd" clip-rule="evenodd" d="M5.67-.001h8.67c3.39 0 5.66 2.38 5.66 5.92v8.171c0 3.53-2.27 5.909-5.66 5.909H5.67C2.28 19.999 0 17.62 0 14.09V5.919c0-3.54 2.28-5.92 5.67-5.92zm7.34 13a.868.868 0 000-1.229l-1.78-1.78 1.78-1.781a.88.88 0 000-1.239.88.88 0 00-1.24 0L10 8.749 8.22 6.97a.88.88 0 00-1.24 0 .88.88 0 000 1.239L8.76 9.99l-1.78 1.77a.88.88 0 00.62 1.5c.23 0 .45-.091.62-.261L10 11.23l1.78 1.769c.17.181.39.261.61.261.23 0 .45-.091.62-.261z" fill="#EB5757"/></svg>
